X: 5
T: The Wren
R: reel
M: 4/4
L: 1/8
K: Bmin
|: E2 B2 B2 AB | c3 B A2 FG | A2 A2 ABAG |1 FE F2 G2 F2 :|2 FE F2 E4 |||: E2 E2 F2 G2 | E2 E2 F2 G2 | A2 A2 ABAG |1 FE F2 G2 F2 :|2 FE F2 E4 |||: A2 e2 e2 de | f3 e d2 bc | d2 d2 dedc |1 BA B2 c2 B2 :|2 BA B2 A4 |||: A2 A2 B2 c2 | A2 A2 B2 c2 | d2 d2 dedc |1 BA B2 c2 B2 :|1 BA B2 A4 ||B2 f2 f2 ef | g3 f e2 cd | e2 e2 efed |1 cB c2 d2 c2 :|2 cB c2 B4 ||B2 B2 c2 d2 | B2 B2 c2 d2 | e2 e2 efed |1 cB c2 d2 c2 :|2 cB c2 B4 ||


Tune 2828	Setting 16035

